X: 92
T: Sir Reginald
T: Reel, A
L: 1/16
M: C|
K: A
|: f2| e2d2c2B2 AAA2 A2c2| B4B2c2 d2e2f2a2| e2d2c2B2 AAA2 A2c2| B2E2G2B2 A4A2:| 
|: f2| e2A2c2A2 e2A2c2A2| B4B2c2 d2e2f2[1a2| e2A2c2A2 e2A2c2A2| B2E2G2B2 A4A2:| [2 g2| a2e2f2d2 c2A2A2c2| B2E2G2B2 A4A2|]
S: transcription by Karen Beaton
D: Ray Ellis, More Like Me!, REC001, 1999
